X: 132
T: Saratoga Hornpipe
M:4/4
L:1/8
B:Cole's
K:F
AB \
| "F"c=BcA "Bb"d_Bfd | "F"cAFA cAdc | "C7"BAGB "F"AGFA | "G7"Gc=Bd "C7"c_BAB |
| "F"c=BcA "Bb"d_Bfd | "F"cAFA cdef | "Bb"defg "C7"efga | "F"f2a2 f2 :|
|: {e}fg \
| "Dm"aAgA fAeA | fAeA dAfA | "A7"eA^ce agfe | "(Dm)"fgef "Dm"defg |
| "Dm"aAgA fAeA | fAeA dAdf | "C7"efga bgeg | "F"f2a2 f2 :|

